X:886
T:Reel 886
M:4/4
K:Amaj
L:1/8
E,2|A,CB,G, A,G,F,G,|E,F,G,A, B,DCB,|A,G,F,G, A,B,CD|EDCD B,DCB,|A,G,F,G, A,CB,D|EDCD EC (3B,CD |EFDB, CA,B,G,|E,F,G,A, A,2|G,A,|B,EEF GFGF|EDCD E2GE|D2B,C DB,CD|B,A,G,F, G,2G,A,|B,EEF GFGA|BEAG FDCD|B,CDB, CA,B,G,|A,F,E,F, A,2|
